qtOfs/res/icons/editpaste.svg

<svg xmlns="http://www.w3.org/2000/svg" viewBox="0 0 160 160" xmlns:xlink="http://www.w3.org/1999/xlink">
<defs>
<linearGradient id="2" y1="119.147" x1="255.848" y2="34.101" x2="375.686" gradientUnits="userSpaceOnUse">
<stop offset="0" stop-color="#fff"/>
<stop offset="1"/>
</linearGradient>
<linearGradient gradientTransform="translate(-2.65767 -.20124)" xlink:href="#linearGradient67" id="linearGradient89" y1="1.147" x1="2.696" y2=".623" x2="3.851" gradientUnits="objectBoundingBox"/>
<linearGradient id="linearGradient67">
<stop offset="0" stop-color="#d7ffff" stop-opacity=".898"/>
<stop offset="1" stop-color="#2ea6b9" stop-opacity=".953"/>
</linearGradient>
<linearGradient id="linearGradient1857">
<stop offset="0" stop-color="#fbddc7" stop-opacity=".992"/>
<stop offset="1" stop-color="#efa81a" stop-opacity=".953"/>
</linearGradient>
<radialGradient cx="-0" cy="-0" gradientTransform="matrix(1.6481 -1.64928 .29523 .31132 .00344 .80911)" xlink:href="#linearGradient1857" id="radialGradient1860" r=".694" gradientUnits="objectBoundingBox"/>
<radialGradient cx="0" cy="0" gradientTransform="matrix(.94588 0 0 1.05722 .26437 .25)" r=".773" id="radialGradient88" gradientUnits="objectBoundingBox">
<stop offset="0" stop-color="#cdffff"/>
<stop offset="1" stop-color="#0c5d7d" stop-opacity=".906"/>
</radialGradient>
</defs>
<path opacity=".7" stroke-opacity=".992" fill="url(#radialGradient1860)" stroke="#cf5d07" stroke-width="2.423" d="m299.557,233.836c2.432-2.419 .239-9.536-4.215-14.759-3.948-4.704-13.591-6.492-16.344-3.8l-76.016,73.793c-4.53,4.534-.638,13.624 3.201,17.095 4.345,3.991 12.108,6.945 16.005,3.073l77.369-75.402z" transform="matrix(.78705 2.70474 -.76672 2.77648 87.5517 -1327.74)"/>
<g transform="matrix(.76737 0 0 .76737 32.2151 32.9655)">
<path stroke-opacity=".99" fill="url(#radialGradient88)" stroke="#0c5d7d" stroke-width="4.036" d="m35.399,39.1321h241.82l100,98.8519v410.214h-341.82v-509.0659z" transform="matrix(.27875 0 0 .28489 29.8322 1.63322)"/>
<path stroke-opacity=".82" fill="#fff" stroke="#2ea6b9" fill-opacity=".699" stroke-width="8.969" d="m23.9471,20.1241h241.8199l100,99.9999v414.979h-341.8199l0-514.9789z" transform="matrix(.27875 0 0 .27875 29.8322 3.74844)"/>
<path fill="url(#2)" d="m276.767,133.124l89-13-100-99.9999" transform="matrix(.27875 0 0 .27875 29.8322 3.74844)"/>
<path stroke-opacity=".91" fill="url(#linearGradient89)" stroke="#2ea6b9" stroke-width="6.726" d="m265.767,120.124h100l-100-99.9999v99.9999" transform="matrix(.27875 0 0 .27875 29.8322 3.74844)"/>
</g>
<path opacity=".7" stroke-opacity=".992" fill="url(#radialGradient1860)" stroke="#cf5d07" stroke-width="3.719" d="m299.557,233.836c2.432-2.419 .239-9.536-4.215-14.759-3.948-4.704-13.591-6.492-16.344-3.8l-76.016,73.793c-4.53,4.534-.638,13.624 3.201,17.095 4.345,3.991 12.108,6.945 16.005,3.073l77.369-75.402z" transform="matrix(.43951 .28915 -.42816 .29681 86.8465 -129.707)"/>
</svg>

<?xml version="1.0" standalone="no"?>
<!DOCTYPE svg PUBLIC "-//W3C//DTD SVG 20010904//EN"
"http://www.w3.org/TR/2001/REC-SVG-20010904/DTD/svg10.dtd"
[
 <!ATTLIST svg
  xmlns:xlink CDATA #FIXED "http://www.w3.org/1999/xlink">
]>
<!-- Created with Sodipodi ("http://www.sodipodi.com/") -->
<svg
   width="128pt"
   height="128pt"
   id="svg1"
   sodipodi:version="0.27"
   sodipodi:docname="/mnt/windows/themes/Work/Blue-Sphere/editpaste.svg"
   sodipodi:docbase="/mnt/windows/themes/Work/Blue-Sphere/"
   xmlns="http://www.w3.org/2000/svg"
   xmlns:sodipodi="http://sodipodi.sourceforge.net/DTD/sodipodi-0.dtd"
   xmlns:xlink="http://www.w3.org/1999/xlink">
  <defs
     id="defs22">
    <linearGradient
       id="linearGradient1857">
      <stop
         offset="0.000000"
         style="stop-color:#fbddc7;stop-opacity:0.992157;"
         id="stop1858" />
      <stop
         offset="1.000000"
         style="stop-color:#efa81a;stop-opacity:0.952941;"
         id="stop1859" />
    </linearGradient>
    <linearGradient
       id="linearGradient168">
      <stop
         offset="0.000000"
         style="stop-color:#cdffff;stop-opacity:1;"
         id="stop169" />
      <stop
         offset="1.000000"
         style="stop-color:#0c5d7d;stop-opacity:0.905882;"
         id="stop170" />
    </linearGradient>
    <linearGradient
       id="linearGradient90">
      <stop
         offset="0.000000"
         style="stop-color:#cdffff;stop-opacity:1;"
         id="stop91" />
      <stop
         offset="1.000000"
         style="stop-color:#006b97;stop-opacity:0.905882;"
         id="stop92" />
    </linearGradient>
    <linearGradient
       id="linearGradient67">
      <stop
         offset="0.000000"
         style="stop-color:#d7ffff;stop-opacity:0.898039;"
         id="stop70" />
      <stop
         offset="1.000000"
         style="stop-color:#2ea6b9;stop-opacity:0.952941;"
         id="stop69" />
    </linearGradient>
    <linearGradient
       id="linearGradient57">
      <stop
         offset="0.000000"
         style="stop-color:#ffffff;stop-opacity:1;"
         id="stop59" />
      <stop
         offset="1.000000"
         style="stop-color:#797979;stop-opacity:1;"
         id="stop58" />
    </linearGradient>
    <defs
       id="defs4">
      <radialGradient
         id="1"
         cx="869.603027"
         cy="1973.579956"
         r="2106.649902"
         fx="869.603027"
         fy="1973.579956"
         gradientUnits="userSpaceOnUse"
         xlink:href="#linearGradient67" />
    </defs>
    <defs
       id="defs11">
      <linearGradient
         id="2"
         x1="255.848"
         y1="119.147"
         x2="375.686"
         y2="34.1009"
         gradientUnits="userSpaceOnUse">
        <stop
           offset="0"
           style="stop-color:#ffffff"
           id="stop13" />
        <stop
           offset="1"
           style="stop-color:#000000"
           id="stop14" />
      </linearGradient>
    </defs>
    <defs
       id="defs16">
      <linearGradient
         id="3"
         x1="275.053009"
         y1="109.384003"
         x2="356.480988"
         y2="30.864300"
         gradientUnits="userSpaceOnUse"
         xlink:href="#linearGradient57" />
    </defs>
    <radialGradient
       cx="3.03981e-14"
       cy="1.05578e-10"
       r="0.773346"
       fx="3.03981e-14"
       fy="1.05578e-10"
       xlink:href="#linearGradient168"
       id="radialGradient88"
       gradientUnits="objectBoundingBox"
       gradientTransform="matrix(0.945877,0,0,1.05722,0.264368,0.249996)"
       spreadMethod="pad" />
    <linearGradient
       x1="2.69643"
       y1="1.14655"
       x2="3.85147"
       y2="0.623116"
       xlink:href="#linearGradient67"
       id="linearGradient89"
       gradientUnits="objectBoundingBox"
       gradientTransform="translate(-2.65767,-0.201241)"
       spreadMethod="pad" />
    <linearGradient
       xlink:href="#linearGradient1857"
       id="linearGradient1856"
       x1="-0.00859958"
       y1="-0.0762464"
       x2="0.0816924"
       y2="0.393272"
       gradientUnits="objectBoundingBox"
       gradientTransform="matrix(1.27999,-1.2809,0.380134,0.400852,0.419179,0.455777)"
       spreadMethod="pad" />
    <radialGradient
       xlink:href="#linearGradient1857"
       id="radialGradient1860"
       cx="-5.51513e-06"
       cy="-1.48419e-06"
       fx="-5.51513e-06"
       fy="-1.48419e-06"
       r="0.694199"
       gradientUnits="objectBoundingBox"
       gradientTransform="matrix(1.6481,-1.64928,0.295229,0.311319,0.00343702,0.809113)"
       spreadMethod="pad" />
  </defs>
  <sodipodi:namedview
     id="base" />
  <path
     style="font-size:12;opacity:0.7;fill:url(#radialGradient1860);stroke:#cf5d07;stroke-width:2.42279;stroke-opacity:0.992157;"
     d="M 299.557 233.836 C 301.989 231.417 299.796 224.3 295.342 219.077 C 291.394 214.373 281.751 212.585 278.998 215.277 L 202.982 289.07 C 198.452 293.604 202.344 302.694 206.183 306.165 C 210.528 310.156 218.291 313.11 222.188 309.238 L 299.557 233.836 z "
     id="path44"
     transform="matrix(0.787053,2.70474,-0.766718,2.77648,87.5517,-1327.74)"
     sodipodi:nodetypes="czcczcc" />
  <g
     id="g1760"
     transform="matrix(0.767374,0,0,0.767374,32.2151,32.9655)">
    <path
       style="font-size:12;fill:url(#radialGradient88);stroke:#0c5d7d;stroke-opacity:0.99;stroke-width:4.03585;"
       d="M 35.399 39.1321L 277.219 39.1321L 377.219 137.984L 377.219 548.198L 35.399 548.198L 35.399 39.1321z"
       id="path1761"
       transform="matrix(0.278752,0,0,0.284891,29.8322,1.63322)" />
    <path
       style="font-size:12;fill:#ffffff;fill-opacity:0.699301;stroke:#2ea6b9;stroke-width:8.96855;stroke-opacity:0.82;"
       d="M 23.9471 20.1241L 265.767 20.1241L 365.767 120.124L 365.767 535.103L 23.9471 535.103L 23.9471 20.1241z"
       id="path1762"
       transform="matrix(0.278752,0,0,0.278752,29.8322,3.74844)" />
    <path
       style="font-size:12;fill:url(#2);"
       d="M 276.767 133.124L 365.767 120.124L 265.767 20.1241"
       id="path1763"
       transform="matrix(0.278752,0,0,0.278752,29.8322,3.74844)" />
    <path
       style="font-size:12;fill:url(#linearGradient89);stroke:#2ea6b9;stroke-width:6.72641;stroke-opacity:0.91;"
       d="M 265.767 120.124L 365.767 120.124L 265.767 20.1241L 265.767 120.124"
       id="path1764"
       transform="matrix(0.278752,0,0,0.278752,29.8322,3.74844)" />
  </g>
  <path
     style="font-size:12;opacity:0.7;fill:url(#radialGradient1860);stroke:#cf5d07;stroke-width:3.7185;stroke-opacity:0.992157;"
     d="M 299.557 233.836 C 301.989 231.417 299.796 224.3 295.342 219.077 C 291.394 214.373 281.751 212.585 278.998 215.277 L 202.982 289.07 C 198.452 293.604 202.344 302.694 206.183 306.165 C 210.528 310.156 218.291 313.11 222.188 309.238 L 299.557 233.836 z "
     id="path1897"
     transform="matrix(0.439512,0.289146,-0.428157,0.296815,86.8465,-129.707)"
     sodipodi:nodetypes="czcczcc" />
</svg>
